dist/svgs/crypto-icons/icons/ppc.svg

<?xml version="1.0" encoding="UTF-8" standalone="yes"?>
<svg xmlns="http://www.w3.org/2000/svg" xmlns:xlink="http://www.w3.org/1999/xlink" width="512px" height="512px" viewBox="0 0 384 384" version="1.1">
  <g id="surface1">
    <path style=" stroke:none;fill-rule:nonzero;fill:rgb(0%,0%,0%);fill-opacity:1;" d="M 278.441406 378.585938 C 278.441406 378.585938 296.035156 320.054688 288.253906 267.445312 C 280.472656 214.835938 233.445312 151.0625 197.921875 122.304688 C 162.394531 93.546875 94.222656 60.898438 94.222656 60.898438 C 94.222656 60.898438 153.429688 106.234375 173.898438 127.886719 C 194.367188 149.539062 222.617188 185.402344 235.980469 232.597656 C 249.347656 279.625 246.976562 361.5 219.910156 378.585938 C 192.847656 395.839844 121.289062 366.070312 97.4375 346.109375 C 73.585938 326.144531 43.136719 293.496094 34.339844 226 C 25.542969 158.335938 28.082031 0 28.082031 0 C 28.082031 0 155.121094 0.675781 251.039062 61.238281 C 347.121094 121.796875 355.917969 169.839844 355.917969 247.316406 C 355.917969 324.960938 278.441406 378.585938 278.441406 378.585938 Z M 278.441406 378.585938 "/>
  </g>
</svg>

<svg xmlns="http://www.w3.org/2000/svg" viewBox="0 0 384 384"><path d="M278.441 378.586s17.594-58.531 9.813-111.14c-7.781-52.61-54.809-116.384-90.332-145.141-35.527-28.758-103.7-61.407-103.7-61.407s59.208 45.336 79.676 66.989c20.47 21.652 48.72 57.515 62.082 104.71 13.368 47.028 10.997 128.903-16.07 145.989-27.062 17.254-98.62-12.516-122.472-32.477C73.585 326.145 43.136 293.496 34.34 226 25.543 158.336 28.082 0 28.082 0s127.04.676 222.957 61.238c96.082 60.559 104.879 108.602 104.879 186.078 0 77.645-77.477 131.27-77.477 131.27zm0 0"/></svg>
